src/assets/images/icon-tumblr.svg

<svg height="80" viewBox="0 0 80 80" width="80" xmlns="http://www.w3.org/2000/svg"><g fill="none"><path d="m40 80c22.0913911 0 40-17.9086089 40-40s-17.9086089-40-40-40-40 17.9086089-40 40 17.9086089 40 40 40z" fill="#2a384a"/><path d="m40.017902 17.2953381v11.9359946h10.7851395v7.6889272h-10.7851395v10.8538766c0 2.652132.1410919 4.3551007.4193289 5.1089062.2792238.751832.7991915 1.3527056 1.5579302 1.8026209 1.0044161.6067936 2.1538706.9096971 3.4493502.9096971 2.2979226 0 4.5859784-.7538054 6.863181-2.2594428v7.2144305c-.3274122.1553087-1.0828576 2.4942641-8.842149 2.4942669-12.5917069.0000032-12.591707-8.8670797-12.591707-10.9578042l.0000001-15.1665512h-6.2009848v-7.4678862c1.7858477-.5841004 2.9546211-1.3077634 4.2264211-2.3980186 1.2737732-1.0902551 2.2939757-2.399548 3.0635676-3.9288652.7705785-1.5263572 1.3004129-3.8210144 1.5914765-6.1830695h6.4635852z" fill="#fff"/></g></svg>

<?xml version="1.0" encoding="UTF-8"?>
<svg width="80px" height="80px" viewBox="0 0 80 80" version="1.1" xmlns="http://www.w3.org/2000/svg" xmlns:xlink="http://www.w3.org/1999/xlink">
    <!-- Generator: Sketch 51.2 (57519) - http://www.bohemiancoding.com/sketch -->
    <title>if_tumblr_287524</title>
    <desc>Created with Sketch.</desc>
    <defs></defs>
    <g id="Page-1" stroke="none" stroke-width="1" fill="none" fill-rule="evenodd">
        <g id="if_tumblr_287524" fill-rule="nonzero">
            <path d="M40,80 C62.0913911,80 80,62.0913911 80,40 C80,17.9086089 62.0913911,0 40,0 C17.9086089,0 0,17.9086089 0,40 C0,62.0913911 17.9086089,80 40,80 Z" id="Tumblr" fill="#2A384A"></path>
            <path d="M40.017902,17.2953381 L40.017902,29.2313327 L50.8030415,29.2313327 L50.8030415,36.9202599 L40.017902,36.9202599 L40.017902,47.7741365 C40.017902,50.4262685 40.1589939,52.1292372 40.4372309,52.8830427 C40.7164547,53.6348747 41.2364224,54.2357483 41.9951611,54.6856636 C42.9995772,55.2924572 44.1490317,55.5953607 45.4445113,55.5953607 C47.7424339,55.5953607 50.0304897,54.8415553 52.3076923,53.3359179 L52.3076923,60.5503484 C51.9802801,60.7056571 51.2248347,63.0446125 43.4655433,63.0446153 C30.8738364,63.0446185 30.8738363,54.1775356 30.8738363,52.0868111 L30.8738364,36.9202599 L24.6728516,36.9202599 L24.6728516,29.4523737 C26.4586993,28.8682733 27.6274727,28.1446103 28.8992727,27.0543551 C30.1730459,25.9641 31.1932484,24.6548071 31.9628403,23.1254899 C32.7334188,21.5991327 33.2632532,19.3044755 33.5543168,16.9424204 L40.017902,16.9424204 L40.017902,17.2953381 Z" id="Tumblr" fill="#FFFFFF"></path>
        </g>
    </g>
</svg>
